assets/awslakeformationdatalake/original.svg

<svg height="48" viewBox="0 0 48 48" width="48" xmlns="http://www.w3.org/2000/svg"><path d="m46 31v2c-.185.107-.521.933-.7 1.376-.476 1.169-1.068 2.624-2.555 2.624s-2.079-1.455-2.555-2.624c-.179-.443-.515-1.269-.732-1.384-.151.116-.486.942-.666 1.384-.476 1.169-1.066 2.624-2.552 2.624s-2.077-1.455-2.552-2.624c-.179-.443-.514-1.268-.731-1.385-.148.117-.483.942-.663 1.385-.475 1.169-1.066 2.624-2.552 2.624-1.484 0-2.074-1.455-2.549-2.624-.179-.443-.513-1.268-.73-1.385-.149.117-.484.943-.663 1.386-.475 1.169-1.066 2.623-2.551 2.623s-2.076-1.454-2.551-2.623c-.179-.443-.514-1.269-.731-1.385l.033-1.992c1.485 0 2.077 1.455 2.552 2.624.179.443.514 1.268.731 1.385.149-.117.484-.942.663-1.385.475-1.169 1.067-2.624 2.552-2.624 1.484 0 2.074 1.455 2.549 2.624.18.443.514 1.268.73 1.385.149-.117.484-.943.663-1.386.475-1.169 1.066-2.623 2.551-2.623s2.076 1.454 2.551 2.623c.18.443.515 1.269.731 1.385.151-.116.486-.942.665-1.384.476-1.169 1.067-2.624 2.552-2.624 1.487 0 2.078 1.454 2.553 2.623.181.443.517 1.27.734 1.385.154-.115.49-.942.67-1.385.475-1.169 1.067-2.623 2.553-2.623m0-7v2c-.185.107-.521.933-.7 1.376-.476 1.169-1.068 2.624-2.555 2.624s-2.079-1.455-2.555-2.624c-.179-.443-.515-1.269-.732-1.384-.151.116-.486.942-.666 1.384-.476 1.169-1.066 2.624-2.552 2.624s-2.077-1.455-2.552-2.624c-.179-.443-.514-1.268-.731-1.385-.148.117-.483.942-.663 1.385-.475 1.169-1.066 2.624-2.552 2.624-1.484 0-2.074-1.455-2.549-2.624-.179-.443-.513-1.268-.73-1.385-.149.117-.484.943-.663 1.386-.475 1.169-1.066 2.623-2.551 2.623s-2.076-1.454-2.551-2.623c-.179-.443-.514-1.269-.731-1.385l.033-1.992c1.485 0 2.077 1.455 2.552 2.624.179.443.514 1.268.731 1.385.149-.117.484-.942.663-1.385.475-1.169 1.067-2.624 2.552-2.624 1.484 0 2.074 1.455 2.549 2.624.18.443.514 1.268.73 1.385.149-.117.484-.943.663-1.386.475-1.169 1.066-2.623 2.551-2.623s2.076 1.454 2.551 2.623c.18.443.515 1.269.731 1.385.151-.116.486-.942.665-1.384.476-1.169 1.067-2.624 2.552-2.624 1.487 0 2.078 1.454 2.553 2.623.181.443.517 1.27.734 1.385.154-.115.49-.942.67-1.385.475-1.169 1.067-2.623 2.553-2.623m0-8v2c-.185.107-.521.933-.7 1.376-.476 1.169-1.068 2.624-2.555 2.624s-2.079-1.455-2.555-2.624c-.179-.443-.515-1.269-.732-1.384-.151.116-.486.942-.666 1.384-.476 1.169-1.066 2.624-2.552 2.624s-2.077-1.455-2.552-2.624c-.179-.443-.514-1.268-.731-1.385-.148.117-.483.942-.663 1.385-.475 1.169-1.066 2.624-2.552 2.624-1.484 0-2.074-1.455-2.549-2.624-.179-.443-.513-1.268-.73-1.385-.149.117-.484.943-.663 1.386-.475 1.169-1.066 2.623-2.551 2.623s-2.076-1.454-2.551-2.623c-.179-.443-.514-1.269-.731-1.385l.033-1.992c1.485 0 2.077 1.455 2.552 2.624.179.443.514 1.268.731 1.385.149-.117.484-.942.663-1.385.475-1.169 1.067-2.624 2.552-2.624 1.484 0 2.074 1.455 2.549 2.624.18.443.514 1.268.73 1.385.149-.117.484-.943.663-1.386.475-1.169 1.066-2.623 2.551-2.623s2.076 1.454 2.551 2.623c.18.443.515 1.269.731 1.385.151-.116.486-.942.665-1.384.476-1.169 1.067-2.624 2.552-2.624 1.487 0 2.078 1.454 2.553 2.623.181.443.517 1.27.734 1.385.154-.115.49-.942.67-1.385.475-1.169 1.067-2.623 2.553-2.623m-29.864-12c7.581 0 12.864 2.165 12.864 4.107 0 1.944-5.283 4.109-12.864 4.109-7.496 0-12.136-2.133-12.136-4.109s4.64-4.107 12.136-4.107m12.864 35.486c0 1.944-5.283 4.109-12.864 4.109-7.597 0-12.136-2.089-12.136-4.109v-6.849c2.358 1.712 6.658 2.741 12.136 2.741v-2c-7.597 0-12.136-2.075-12.136-4.081v-6.888c2.358 1.719 6.658 2.753 12.136 2.753v-2c-7.496 0-12.136-2.133-12.136-4.108v-7.591c2.358 1.719 6.658 2.753 12.136 2.753 5.054 0 10.149-.985 12.864-2.89v3.674h2v-7h-.013c-.135-3.938-7.533-6-14.851-6-8.371 0-14.013 2.407-14.125 6h-.011v31.486c0 3.654 5.681 6.109 14.136 6.109 7.159 0 14.864-1.911 14.864-6.109v-1.486h-2z" fill="#8c4fff" fill-rule="evenodd"/></svg>

<svg xmlns="http://www.w3.org/2000/svg" width="48" height="48" viewBox="0 0 48 48"><title>Icon-Resource/Analytics/Res_AWS-Lake-Formation_Data-Lake_48</title><g id="Icon-Resource/Analytics/Res_AWS-Lake-Formation_Data-Lake_48" fill="none" fill-rule="evenodd" stroke="none" stroke-width="1"><path id="Icon-Resource/48/AWS-Lake-Formation_Data-Lake" fill="#8c4fff" d="M46 31v2c-.185.107-.521.933-.7 1.376C44.824 35.545 44.232 37 42.745 37s-2.079-1.455-2.555-2.624c-.179-.443-.515-1.269-.732-1.384-.151.116-.486.942-.666 1.384C38.316 35.545 37.726 37 36.24 37s-2.077-1.455-2.552-2.624c-.179-.443-.514-1.268-.731-1.385-.148.117-.483.942-.663 1.385C31.819 35.545 31.228 37 29.742 37c-1.484 0-2.074-1.455-2.549-2.624-.179-.443-.513-1.268-.73-1.385-.149.117-.484.943-.663 1.386C25.325 35.546 24.734 37 23.249 37s-2.076-1.454-2.551-2.623c-.179-.443-.514-1.269-.731-1.385L20 31c1.485 0 2.077 1.455 2.552 2.624.179.443.514 1.268.731 1.385.149-.117.484-.942.663-1.385.475-1.169 1.067-2.624 2.552-2.624 1.484 0 2.074 1.455 2.549 2.624.18.443.514 1.268.73 1.385.149-.117.484-.943.663-1.386.475-1.169 1.066-2.623 2.551-2.623s2.076 1.454 2.551 2.623c.18.443.515 1.269.731 1.385.151-.116.486-.942.665-1.384C37.414 32.455 38.005 31 39.49 31c1.487 0 2.078 1.454 2.553 2.623.181.443.517 1.27.734 1.385.154-.115.49-.942.67-1.385C43.922 32.454 44.514 31 46 31m0-7v2c-.185.107-.521.933-.7 1.376C44.824 28.545 44.232 30 42.745 30s-2.079-1.455-2.555-2.624c-.179-.443-.515-1.269-.732-1.384-.151.116-.486.942-.666 1.384C38.316 28.545 37.726 30 36.24 30s-2.077-1.455-2.552-2.624c-.179-.443-.514-1.268-.731-1.385-.148.117-.483.942-.663 1.385C31.819 28.545 31.228 30 29.742 30c-1.484 0-2.074-1.455-2.549-2.624-.179-.443-.513-1.268-.73-1.385-.149.117-.484.943-.663 1.386C25.325 28.546 24.734 30 23.249 30s-2.076-1.454-2.551-2.623c-.179-.443-.514-1.269-.731-1.385L20 24c1.485 0 2.077 1.455 2.552 2.624.179.443.514 1.268.731 1.385.149-.117.484-.942.663-1.385.475-1.169 1.067-2.624 2.552-2.624 1.484 0 2.074 1.455 2.549 2.624.18.443.514 1.268.73 1.385.149-.117.484-.943.663-1.386.475-1.169 1.066-2.623 2.551-2.623s2.076 1.454 2.551 2.623c.18.443.515 1.269.731 1.385.151-.116.486-.942.665-1.384C37.414 25.455 38.005 24 39.49 24c1.487 0 2.078 1.454 2.553 2.623.181.443.517 1.27.734 1.385.154-.115.49-.942.67-1.385C43.922 25.454 44.514 24 46 24m0-8v2c-.185.107-.521.933-.7 1.376C44.824 20.545 44.232 22 42.745 22s-2.079-1.455-2.555-2.624c-.179-.443-.515-1.269-.732-1.384-.151.116-.486.942-.666 1.384C38.316 20.545 37.726 22 36.24 22s-2.077-1.455-2.552-2.624c-.179-.443-.514-1.268-.731-1.385-.148.117-.483.942-.663 1.385C31.819 20.545 31.228 22 29.742 22c-1.484 0-2.074-1.455-2.549-2.624-.179-.443-.513-1.268-.73-1.385-.149.117-.484.943-.663 1.386C25.325 20.546 24.734 22 23.249 22s-2.076-1.454-2.551-2.623c-.179-.443-.514-1.269-.731-1.385L20 16c1.485 0 2.077 1.455 2.552 2.624.179.443.514 1.268.731 1.385.149-.117.484-.942.663-1.385.475-1.169 1.067-2.624 2.552-2.624 1.484 0 2.074 1.455 2.549 2.624.18.443.514 1.268.73 1.385.149-.117.484-.943.663-1.386.475-1.169 1.066-2.623 2.551-2.623s2.076 1.454 2.551 2.623c.18.443.515 1.269.731 1.385.151-.116.486-.942.665-1.384C37.414 17.455 38.005 16 39.49 16c1.487 0 2.078 1.454 2.553 2.623.181.443.517 1.27.734 1.385.154-.115.49-.942.67-1.385C43.922 17.454 44.514 16 46 16M16.136 4C23.717 4 29 6.165 29 8.107c0 1.944-5.283 4.109-12.864 4.109C8.64 12.216 4 10.083 4 8.107S8.64 4 16.136 4M29 39.486c0 1.944-5.283 4.109-12.864 4.109C8.539 43.595 4 41.506 4 39.486v-6.849c2.358 1.712 6.658 2.741 12.136 2.741v-2C8.539 33.378 4 31.303 4 29.297v-6.888c2.358 1.719 6.658 2.753 12.136 2.753v-2C8.64 23.162 4 21.029 4 19.054v-7.591c2.358 1.719 6.658 2.753 12.136 2.753 5.054 0 10.149-.985 12.864-2.89V15h2V8h-.013c-.135-3.938-7.533-6-14.851-6C7.765 2 2.123 4.407 2.011 8H2v31.486c0 3.654 5.681 6.109 14.136 6.109 7.159 0 14.864-1.911 14.864-6.109V38h-2z"/></g></svg>
